src/assets/icons/type-receive.svg

<?xml version="1.0" encoding="UTF-8"?>
<svg width="24px" height="24px" viewBox="0 0 24 24" version="1.1" xmlns="http://www.w3.org/2000/svg" xmlns:xlink="http://www.w3.org/1999/xlink">
    <title>矩形</title>
    <g id="扩展程序" stroke="none" stroke-width="1" fill="none" fill-rule="evenodd">
        <g id="代币详情" transform="translate(-40.000000, -502.000000)" fill="#297AFF">
            <g id="编组-2备份" transform="translate(20.000000, 474.000000)">
                <g id="编组" transform="translate(20.000000, 28.000000)">
                    <rect id="矩形" opacity="0.200000003" x="2" y="2" width="20" height="20" rx="3"></rect>
                    <path d="M9,15 L15,15 C15.5522847,15 16,15.4477153 16,16 C16,16.5522847 15.5522847,17 15,17 L9,17 C8.44771525,17 8,16.5522847 8,16 C8,15.4477153 8.44771525,15 9,15 Z M12,7 C12.5522847,7 13,7.44771525 13,8 L12.9997314,11.267 L14.9641016,10.1339746 C15.4423942,9.85783222 16.0539846,10.0217074 16.330127,10.5 C16.6062694,10.9782926 16.4423942,11.589883 15.9641016,11.8660254 L12.5,13.8660254 L12.4856381,13.8743326 C12.475617,13.8798863 12.4655088,13.885263 12.4553188,13.8904614 C12.4501182,13.8932299 12.444959,13.8958162 12.4397747,13.8983588 L12.4107314,13.91 L12.3956393,13.9185096 C12.3903528,13.9207945 12.385055,13.9230302 12.3797463,13.9252169 C12.3710106,13.9287171 12.3626124,13.9320218 12.3541734,13.9352121 C12.3488278,13.9374967 12.3430557,13.939625 12.3372588,13.9417014 L12.3054512,13.9524267 C12.29442,13.9559765 12.2833546,13.9593243 12.27226,13.9624716 C12.2640562,13.9645428 12.2560472,13.9666997 12.2480126,13.9687572 C12.2422199,13.9704874 12.2357675,13.9720698 12.2292908,13.9735893 L12.2090428,13.9781823 C12.192374,13.9817483 12.1756608,13.9848744 12.1589191,13.9875652 C12.151554,13.9885183 12.1435583,13.9897164 12.135547,13.9908181 C12.1294676,13.991717 12.1230537,13.9925251 12.1166211,13.9932723 L12.0902459,13.9961609 C12.080258,13.9970593 12.0702679,13.9978057 12.0602789,13.998401 C12.047624,13.9990672 12.0349503,13.9996032 12.0222594,13.9998978 L12,14 L12,14 L11.979926,13.9999461 C11.9658915,13.999651 11.9518775,13.9990607 11.9378934,13.9981777 C11.9299585,13.9978092 11.9212641,13.9971673 11.9125712,13.9964103 L11.8833789,13.9932723 L11.8833789,13.9932723 L11.8643078,13.9907981 C11.85632,13.9896985 11.8483477,13.9885029 11.8403927,13.987212 C11.8244667,13.984881 11.8086999,13.9819417 11.7929722,13.9786112 C11.7857281,13.9770209 11.7782024,13.9753472 11.7707092,13.9735893 L11.7520885,13.9687831 C11.7436794,13.9666306 11.7352984,13.9643693 11.7269478,13.9619999 C11.7143544,13.9586598 11.7020044,13.9548819 11.6896979,13.950852 C11.6805244,13.9479286 11.6716039,13.9448758 11.6627412,13.9417014 L11.6487904,13.9363273 C11.6396961,13.9329219 11.6306487,13.9293839 11.6216515,13.925714 C11.6093288,13.9207441 11.5966407,13.9152392 11.5840224,13.9094497 C11.5757439,13.9058456 11.5679566,13.9021507 11.5602253,13.8983588 L11.5446812,13.8904614 C11.5362125,13.8861411 11.5278003,13.8816976 11.5194476,13.8771318 C11.5131651,13.8735287 11.50657,13.8698186 11.5,13.8660254 L8.03589838,11.8660254 C7.55760576,11.589883 7.39373061,10.9782926 7.66987298,10.5 C7.94601536,10.0217074 8.55760576,9.85783222 9.03589838,10.1339746 L10.9997314,11.267 L11,8 C11,7.44771525 11.4477153,7 12,7 Z" id="形状结合"></path>
                </g>
            </g>
        </g>
    </g>
</svg>

<svg width="24" height="24" xmlns="http://www.w3.org/2000/svg"><g fill="#297aff" fill-rule="evenodd"><rect opacity=".2" x="2" y="2" width="20" height="20" rx="3"/><path d="M9 15h6a1 1 0 0 1 0 2H9a1 1 0 0 1 0-2zm3-8a1 1 0 0 1 1 1v3.267l1.964-1.133a1 1 0 0 1 1 1.732l-3.464 2-.014.008a1 1 0 0 1-.046.024l-.03.012-.014.009a1 1 0 0 1-.059.023l-.032.01a.993.993 0 0 1-.033.01l-.024.007a.332.332 0 0 1-.019.005l-.02.004a.992.992 0 0 1-.05.01l-.023.003a.62.62 0 0 1-.02.002l-.026.003a.996.996 0 0 1-.068.004H11.98a1 1 0 0 1-.067-.004l-.03-.003-.019-.002a1.005 1.005 0 0 1-.093-.017l-.019-.005a1.006 1.006 0 0 1-.09-.027l-.013-.006a1.005 1.005 0 0 1-.089-.038l-.015-.008a1 1 0 0 1-.026-.013l-.019-.011-3.464-2a1 1 0 0 1 1-1.732L11 11.267V8a1 1 0 0 1 1-1z"/></g></svg>
